icons/mobile/24/svg/extension-warning-multicolor-24.svg

<svg width="24" height="24" viewBox="0 0 24 24" fill="none" xmlns="http://www.w3.org/2000/svg">
<path d="M10.918 19.727L11.222 19.211C9.136 19.272 7.042 19.195 4.978 18.943C4.278 18.856 3.749 18.255 3.75 17.543V16.594H4.705C6.424 16.594 7.822 15.198 7.822 13.483C7.822 11.768 6.424 10.372 4.705 10.372H3.751V9.48798C3.749 8.77598 4.286 8.17398 4.999 8.08598C5.875 7.97998 6.762 7.89898 7.634 7.85098C8.097 7.82498 8.459 7.44098 8.459 6.97698V5.28698C8.459 4.43998 9.151 3.75198 10.002 3.75198C10.853 3.75198 11.544 4.43998 11.544 5.28698V7.01898C11.544 7.48198 11.907 7.86598 12.37 7.89198C13.374 7.94898 14.209 8.01498 14.996 8.10198C15.711 8.17998 16.25 8.78398 16.25 9.50498V11.791C16.637 11.616 17.054 11.501 17.5 11.501C17.672 11.501 17.835 11.538 18 11.565V9.50498C18 7.88898 16.791 6.53798 15.188 6.36098C14.596 6.29698 13.981 6.24198 13.295 6.19498V5.28498C13.295 3.47398 11.816 2.00098 10.001 2.00098C8.186 2.00098 6.709 3.47498 6.709 5.28598V6.15798C6.068 6.20698 5.425 6.27098 4.786 6.34898C3.196 6.54398 1.999 7.89398 2 9.48998L2.002 11.248C2.002 11.73 2.395 12.122 2.877 12.122H4.705C5.459 12.122 6.072 12.732 6.072 13.483C6.072 14.234 5.459 14.844 4.705 14.844H2.877C2.395 14.844 2.003 15.236 2.002 15.718L2 17.541C2 19.137 3.187 20.486 4.765 20.68C6.496 20.893 8.258 21 10.001 21C10.176 21 10.352 20.986 10.528 20.984C10.567 20.548 10.688 20.118 10.918 19.727Z" fill="black"/>
<path fill-rule="evenodd" clip-rule="evenodd" d="M16.1803 13.7499C16.7704 12.7501 18.231 12.75 18.82 13.7499L22.7907 20.4901C23.3386 21.4201 22.7554 22.617 21.6754 22.748C20.1276 22.9349 18.7215 22.9999 17.4997 22.9999C15.9899 22.9999 14.5982 22.9009 13.3444 22.7499C12.2525 22.6179 11.656 21.4281 12.2096 20.4882L16.1803 13.7499ZM17.4997 19.9999C17.0856 20.0001 16.7497 20.3358 16.7497 20.7499C16.7497 21.164 17.0856 21.4997 17.4997 21.4999C17.9139 21.4999 18.2497 21.1641 18.2497 20.7499C18.2497 20.3357 17.9139 19.9999 17.4997 19.9999ZM17.4997 15.4999C17.0856 15.5001 16.7497 15.8358 16.7497 16.2499V17.9999C16.7497 18.414 17.0856 18.7497 17.4997 18.7499C17.9139 18.7499 18.2497 18.4141 18.2497 17.9999V16.2499C18.2497 15.8357 17.9139 15.4999 17.4997 15.4999Z" fill="#C52D4F"/>
</svg>

<!-- This Source Code Form is subject to the terms of the Mozilla Public
   - License, v. 2.0. If a copy of the MPL was not distributed with this
   - file, You can obtain one at http://mozilla.org/MPL/2.0/. -->
<svg xmlns="http://www.w3.org/2000/svg" width="24" height="24" fill="none" viewBox="0 0 24 24">
    <path fill="#000" d="m10.918 19.727.304-.516a41.6 41.6 0 0 1-6.244-.268 1.41 1.41 0 0 1-1.228-1.4v-.949h.955a3.12 3.12 0 0 0 3.117-3.111 3.12 3.12 0 0 0-3.117-3.111h-.954v-.884a1.415 1.415 0 0 1 1.248-1.402 41 41 0 0 1 2.635-.235.875.875 0 0 0 .825-.874v-1.69a1.54 1.54 0 0 1 1.543-1.535 1.54 1.54 0 0 1 1.542 1.535v1.732c0 .463.363.847.826.873 1.004.057 1.839.123 2.626.21a1.41 1.41 0 0 1 1.254 1.403v2.286a3 3 0 0 1 1.25-.29c.172 0 .335.037.5.064v-2.06a3.157 3.157 0 0 0-2.812-3.144 48 48 0 0 0-1.893-.166v-.91a3.293 3.293 0 0 0-6.586.001v.872q-.963.074-1.923.191A3.17 3.17 0 0 0 2 9.49l.002 1.758c0 .482.393.874.875.874h1.828c.754 0 1.367.61 1.367 1.361s-.613 1.361-1.367 1.361H2.877a.876.876 0 0 0-.875.874L2 17.541a3.16 3.16 0 0 0 2.765 3.139c1.731.213 3.493.32 5.236.32.175 0 .351-.014.527-.016.039-.436.16-.866.39-1.257" />
    <path fill="#c52d4f" fill-rule="evenodd" d="M16.18 13.75c.59-1 2.051-1 2.64 0l3.97 6.74a1.506 1.506 0 0 1-1.115 2.258 35 35 0 0 1-8.33.002c-1.093-.132-1.689-1.322-1.135-2.262zM17.5 20a.75.75 0 1 0 0 1.5.75.75 0 0 0 0-1.5m0-4.5a.75.75 0 0 0-.75.75V18a.75.75 0 0 0 1.5 0v-1.75a.75.75 0 0 0-.75-.75" clip-rule="evenodd" />
</svg>
